X:1
T:Banks of the Ohio
M:4/4
L:1/4
K:C
 z C C C| E4-| E C B, C| D4-| D z D E| F4-| F A A G| E4| z C C E| G4-|\
 G E F G| A- F3-| F C C D| E4-| E C D D| C4-| C z3|
